!!!OTL: SIND WIR GESCHIEDEN
!!!ARE: Europa, Mitteleuropa, Deutschland
!!!SCT: E0509
!!!YEM: Copyright 1995, estate of Helmut Schaffrath.
**kern
*ICvox
*Ivox
*M2/4
*k[b-e-]
*g:
{8fn
=1
4b-
4cc
=2
4dd
8cc}
{8dd
=3
8ee-
8dd
8cc
8b-
=4
4.cc}
{8fn
=5
4b-
4cc
=6
8dd
8ee-
8ffn}
{8ee-
=7
8dd
8b-
8cc
8a
=8
4.b-}
{8cc
=9
4cc
4cc
=10
8a
8g
8fn}
{8dd
=11
4dd
4dd
=12
8b-
8a
8g}
{8g
=13
8ee-
8dd
8cc
8b-
=14
4.a}
{8cc
=15
8b-
8g
8a
8f#
=16
4.g}
==
!!!AGN: Liebes - Lied
!!!ONB: ESAC (Essen Associative Code) Database: ERK1
!!!AMT: simple duple
!!!AIN: vox
!!!EED: Helmut Schaffrath
!!!EEV: 1.0
*-
